X:146
T:End Of Reveille - Camp Duties #7 *
B:American Veteran Fifer - Camp Duties #7
M:2/4
L:1/16
Q:1/4=90
K:G
%%MIDI channel 1
%%MIDI program 72
%%MIDI transpose 20
%%MIDI grace 1/8
%%MIDI ratio 2 1
c2|B>c A>B G2g2|f>d e>f g2>a2|B>c A>B G2g2|f>d e>c d2((3def)|g>d B>G E2>e2|
d>e ((3dcB) A2>c2|B>c A>B G2g2|f>g a>f g2|| \
K:D \
M:C \
Td8 -d4 z4|Te8 -e4 z4|Tg8 Te8|THd8||
